X: 1
T: Ishabele Burk
B: A COLECTION of the most Celebrated Irish Tunes14c
M: 3/4
L: 1/8
K: Em
(Bd) | e2 g2 dc | e2 a2 (ag) | e2 a2 Tg>e | Tc4 ((3GAB) |
B2 e2 (dB) | G2 e2 dB | A2 B2 TA>G | E4 (DE) |
G2 G2 ((3EDE) | G2 G2 ((3GAB) | c2 c2 Tg>e | Tc4 ((3GAB) |
B2 e2 (dB) | G2 e2 (dB) | A2 B2 TA>G | E4 |]
